img/svg/software-licenses/file-earmark-plus.svg

<svg width="24" height="24" viewBox="0 0 24 24" fill="none" xmlns="http://www.w3.org/2000/svg">
<path d="M12 9.75C12.1989 9.75 12.3897 9.82902 12.5303 9.96967C12.671 10.1103 12.75 10.3011 12.75 10.5V12.75H15C15.1989 12.75 15.3897 12.829 15.5303 12.9697C15.671 13.1103 15.75 13.3011 15.75 13.5C15.75 13.6989 15.671 13.8897 15.5303 14.0303C15.3897 14.171 15.1989 14.25 15 14.25H12.75V16.5C12.75 16.6989 12.671 16.8897 12.5303 17.0303C12.3897 17.171 12.1989 17.25 12 17.25C11.8011 17.25 11.6103 17.171 11.4697 17.0303C11.329 16.8897 11.25 16.6989 11.25 16.5V14.25H9C8.80109 14.25 8.61032 14.171 8.46967 14.0303C8.32902 13.8897 8.25 13.6989 8.25 13.5C8.25 13.3011 8.32902 13.1103 8.46967 12.9697C8.61032 12.829 8.80109 12.75 9 12.75H11.25V10.5C11.25 10.3011 11.329 10.1103 11.4697 9.96967C11.6103 9.82902 11.8011 9.75 12 9.75Z" fill="#5E60CE"/>
<path d="M21 6.75V21C21 21.7956 20.6839 22.5587 20.1213 23.1213C19.5587 23.6839 18.7956 24 18 24H6C5.20435 24 4.44129 23.6839 3.87868 23.1213C3.31607 22.5587 3 21.7956 3 21V3C3 2.20435 3.31607 1.44129 3.87868 0.87868C4.44129 0.316071 5.20435 0 6 0H14.25L21 6.75ZM16.5 6.75C15.9033 6.75 15.331 6.51295 14.909 6.09099C14.4871 5.66903 14.25 5.09674 14.25 4.5V1.5H6C5.60218 1.5 5.22064 1.65804 4.93934 1.93934C4.65804 2.22064 4.5 2.60218 4.5 3V21C4.5 21.3978 4.65804 21.7794 4.93934 22.0607C5.22064 22.342 5.60218 22.5 6 22.5H18C18.3978 22.5 18.7794 22.342 19.0607 22.0607C19.342 21.7794 19.5 21.3978 19.5 21V6.75H16.5Z" fill="#5E60CE"/>
</svg>

<svg width="24" height="24" fill="none" xmlns="http://www.w3.org/2000/svg"><path d="M12 9.75a.75.75 0 01.75.75v2.25H15a.75.75 0 110 1.5h-2.25v2.25a.75.75 0 11-1.5 0v-2.25H9a.75.75 0 110-1.5h2.25V10.5a.75.75 0 01.75-.75z" fill="#5E60CE"/><path d="M21 6.75V21a3 3 0 01-3 3H6a3 3 0 01-3-3V3a3 3 0 013-3h8.25L21 6.75zm-4.5 0a2.25 2.25 0 01-2.25-2.25v-3H6A1.5 1.5 0 004.5 3v18A1.5 1.5 0 006 22.5h12a1.5 1.5 0 001.5-1.5V6.75h-3z" fill="#5E60CE"/></svg>
